src/lib/packages/icons/src/assets/line/scan-qr.svg

<svg xmlns="http://www.w3.org/2000/svg" width="24" height="24" fill="none"><path fill="currentColor" d="M21.75 4.5V8a.75.75 0 0 1-1.5 0V4.5c0-.589-.161-.75-.75-.75H16a.75.75 0 0 1 0-1.5h3.5c1.409 0 2.25.841 2.25 2.25ZM3 8.75A.75.75 0 0 0 3.75 8V4.5c0-.589.161-.75.75-.75H8a.75.75 0 0 0 0-1.5H4.5c-1.409 0-2.25.841-2.25 2.25V8c0 .414.336.75.75.75Zm5 11.5H4.5c-.589 0-.75-.161-.75-.75V16a.75.75 0 0 0-1.5 0v3.5c0 1.409.841 2.25 2.25 2.25H8a.75.75 0 0 0 0-1.5Zm13-5a.75.75 0 0 0-.75.75v3.5c0 .589-.161.75-.75.75H16a.75.75 0 0 0 0 1.5h3.5c1.409 0 2.25-.841 2.25-2.25V16a.75.75 0 0 0-.75-.75Zm-8.75-5v-2.5c0-.911.589-1.5 1.5-1.5h2.5c.911 0 1.5.589 1.5 1.5v2.5c0 .911-.589 1.5-1.5 1.5h-2.5c-.911 0-1.5-.589-1.5-1.5Zm1.5 0h2.492l.008-2.492-2.492-.008-.008 2.5Zm-2-2.5v2.5c0 .911-.589 1.5-1.5 1.5h-2.5c-.911 0-1.5-.589-1.5-1.5v-2.5c0-.911.589-1.5 1.5-1.5h2.5c.911 0 1.5.589 1.5 1.5Zm-1.5.008L7.758 7.75l-.008 2.5h2.492l.008-2.492Zm6 9.992h-2.5c-.911 0-1.5-.589-1.5-1.5v-2.5c0-.911.589-1.5 1.5-1.5h2.5c.911 0 1.5.589 1.5 1.5v2.5c0 .911-.589 1.5-1.5 1.5Zm-.008-1.5.008-2.492-2.492-.008-.008 2.5h2.492Zm-4.492-2.5v2.5c0 .911-.589 1.5-1.5 1.5h-2.5c-.911 0-1.5-.589-1.5-1.5v-2.5c0-.911.589-1.5 1.5-1.5h2.5c.911 0 1.5.589 1.5 1.5Zm-1.5.008-2.492-.008-.008 2.5h2.492l.008-2.492Z"/></svg>

<svg width="24" height="24" viewBox="0 0 24 24" fill="none" xmlns="http://www.w3.org/2000/svg">
<path d="M21.75 4.5V8C21.75 8.414 21.414 8.75 21 8.75C20.586 8.75 20.25 8.414 20.25 8V4.5C20.25 3.911 20.089 3.75 19.5 3.75H16C15.586 3.75 15.25 3.414 15.25 3C15.25 2.586 15.586 2.25 16 2.25H19.5C20.909 2.25 21.75 3.091 21.75 4.5ZM3 8.75C3.414 8.75 3.75 8.414 3.75 8V4.5C3.75 3.911 3.911 3.75 4.5 3.75H8C8.414 3.75 8.75 3.414 8.75 3C8.75 2.586 8.414 2.25 8 2.25H4.5C3.091 2.25 2.25 3.091 2.25 4.5V8C2.25 8.414 2.586 8.75 3 8.75ZM8 20.25H4.5C3.911 20.25 3.75 20.089 3.75 19.5V16C3.75 15.586 3.414 15.25 3 15.25C2.586 15.25 2.25 15.586 2.25 16V19.5C2.25 20.909 3.091 21.75 4.5 21.75H8C8.414 21.75 8.75 21.414 8.75 21C8.75 20.586 8.414 20.25 8 20.25ZM21 15.25C20.586 15.25 20.25 15.586 20.25 16V19.5C20.25 20.089 20.089 20.25 19.5 20.25H16C15.586 20.25 15.25 20.586 15.25 21C15.25 21.414 15.586 21.75 16 21.75H19.5C20.909 21.75 21.75 20.909 21.75 19.5V16C21.75 15.586 21.414 15.25 21 15.25ZM12.25 10.25V7.75C12.25 6.839 12.839 6.25 13.75 6.25H16.25C17.161 6.25 17.75 6.839 17.75 7.75V10.25C17.75 11.161 17.161 11.75 16.25 11.75H13.75C12.839 11.75 12.25 11.161 12.25 10.25ZM13.75 10.25H16.2419L16.25 7.758L13.7581 7.75L13.75 10.25ZM11.75 7.75V10.25C11.75 11.161 11.161 11.75 10.25 11.75H7.75C6.839 11.75 6.25 11.161 6.25 10.25V7.75C6.25 6.839 6.839 6.25 7.75 6.25H10.25C11.161 6.25 11.75 6.839 11.75 7.75ZM10.25 7.758L7.75806 7.75L7.75 10.25H10.2419L10.25 7.758ZM16.25 17.75H13.75C12.839 17.75 12.25 17.161 12.25 16.25V13.75C12.25 12.839 12.839 12.25 13.75 12.25H16.25C17.161 12.25 17.75 12.839 17.75 13.75V16.25C17.75 17.161 17.161 17.75 16.25 17.75ZM16.2419 16.25L16.25 13.758L13.7581 13.75L13.75 16.25H16.2419ZM11.75 13.75V16.25C11.75 17.161 11.161 17.75 10.25 17.75H7.75C6.839 17.75 6.25 17.161 6.25 16.25V13.75C6.25 12.839 6.839 12.25 7.75 12.25H10.25C11.161 12.25 11.75 12.839 11.75 13.75ZM10.25 13.758L7.75806 13.75L7.75 16.25H10.2419L10.25 13.758Z" fill="currentColor"/>
</svg>
